src/assets/icons/weeks,simple,38.svg

<svg width="48" height="48" viewBox="0 0 48 48" fill="none" xmlns="http://www.w3.org/2000/svg">
<rect opacity="0.2" x="5" y="5" width="38" height="38" rx="4" fill="black"/>
<path d="M5 13C5 9.22876 5 7.34315 6.17157 6.17157C7.34315 5 9.22876 5 13 5H35C38.7712 5 40.6569 5 41.8284 6.17157C43 7.34315 43 9.22876 43 13V15H5V13Z" fill="black"/>
<path d="M16.0227 38.2386C19.9432 38.2386 22.7472 36.0824 22.7386 33.0994C22.7472 30.9261 21.3665 29.375 18.8011 29.0511V28.9148C20.7528 28.5653 22.0994 27.1847 22.0909 25.2244C22.0994 22.4716 19.6875 20.3068 16.0739 20.3068C12.4943 20.3068 9.80114 22.4034 9.75 25.4205H13.2869C13.3295 24.0909 14.5483 23.2301 16.0568 23.2301C17.5483 23.2301 18.5455 24.1335 18.5369 25.446C18.5455 26.8182 17.3778 27.7472 15.6989 27.7472H14.071V30.4574H15.6989C17.6761 30.4574 18.9119 31.446 18.9034 32.8523C18.9119 34.2415 17.7188 35.196 16.0312 35.196C14.4034 35.196 13.1847 34.3438 13.1165 33.0653H9.40057C9.46023 36.1165 12.1875 38.2386 16.0227 38.2386ZM31.9027 38.2386C35.8402 38.2386 38.6697 36.1335 38.6783 33.304C38.6697 31.1222 36.9908 29.3409 34.8942 28.9915V28.8722C36.718 28.4972 38.022 26.9205 38.0305 25.0028C38.022 22.3011 35.4311 20.3068 31.9027 20.3068C28.3658 20.3068 25.7749 22.3011 25.7834 25.0028C25.7749 26.9119 27.0618 28.4972 28.9197 28.8722V28.9915C26.7891 29.3409 25.1271 31.1222 25.1357 33.304C25.1271 36.1335 27.9652 38.2386 31.9027 38.2386ZM31.9027 35.5284C30.147 35.5284 28.9709 34.4886 28.9709 33.0142C28.9709 31.5057 30.2067 30.4148 31.9027 30.4148C33.5902 30.4148 34.8345 31.5057 34.8345 33.0142C34.8345 34.4972 33.6499 35.5284 31.9027 35.5284ZM31.9027 27.7301C30.4283 27.7301 29.38 26.767 29.38 25.3864C29.38 24.0227 30.4112 23.0852 31.9027 23.0852C33.3857 23.0852 34.4254 24.0312 34.4254 25.3864C34.4254 26.767 33.3686 27.7301 31.9027 27.7301Z" fill="black"/>
</svg>

<svg xmlns="http://www.w3.org/2000/svg" width="48" height="48" fill="none" viewBox="0 0 48 48">
  <rect width="38" height="38" x="5" y="5" fill="#000" opacity=".2" rx="4"/>
  <path fill="#000" d="M5 13c0-3.771 0-5.657 1.172-6.828C7.343 5 9.229 5 13 5h22c3.771 0 5.657 0 6.828 1.172C43 7.343 43 9.229 43 13v2H5v-2zM16.023 38.239c3.92 0 6.724-2.157 6.716-5.14.008-2.173-1.373-3.724-3.938-4.048v-.136c1.952-.35 3.298-1.73 3.29-3.69.008-2.753-2.404-4.918-6.017-4.918-3.58 0-6.273 2.096-6.324 5.114h3.537c.042-1.33 1.261-2.19 2.77-2.19 1.491 0 2.489.902 2.48 2.215.009 1.372-1.16 2.301-2.838 2.301H14.07v2.71h1.628c1.977 0 3.213.989 3.204 2.395.009 1.39-1.184 2.344-2.872 2.344-1.628 0-2.846-.852-2.914-2.13H9.4c.06 3.05 2.787 5.173 6.622 5.173zm15.88 0c3.937 0 6.767-2.105 6.775-4.935-.008-2.182-1.687-3.963-3.784-4.313v-.119c1.824-.375 3.128-1.951 3.137-3.87-.009-2.7-2.6-4.695-6.128-4.695-3.537 0-6.128 1.994-6.12 4.696-.008 1.909 1.279 3.494 3.137 3.87v.118c-2.13.35-3.793 2.131-3.784 4.313-.009 2.83 2.83 4.935 6.767 4.935zm0-2.71c-1.756 0-2.932-1.04-2.932-2.515 0-1.508 1.236-2.6 2.932-2.6 1.687 0 2.931 1.092 2.931 2.6 0 1.483-1.184 2.514-2.931 2.514zm0-7.799c-1.475 0-2.523-.963-2.523-2.344 0-1.363 1.031-2.3 2.523-2.3 1.483 0 2.522.945 2.522 2.3 0 1.381-1.056 2.344-2.522 2.344z"/>
</svg>
